X:1
T:Buck-Eyed Jim
M:4/4
L:1/4
K:C
 c A G/2G/2 E| G A G3/2 E/2| G A G E/2G/2| A EE/2-D/2 C| E/2 G3/2 C3/2 C/2|\
 D E3/2 z/2 G| E/2 G3/2 C3/2 C/2| D E D/2 D3/2| C4|
